!!!COM: Bach, Johann Sebastian
!!!CDT: 1685/3//-1750/7/28/
!!!OTL@@DE: Christus ist erstanden, hat ueberwunden
!!!OTL@EN:  Christ is risen, has conquered
!!!AGN: 4-Part Chorale
!!!SCT: BH 200
!!!SCT: BWV 284
!!!YEC: Copyright 1994, David Huron
!!!YEC: Changes/Additions 2001 by Craig Stuart Sapp
!!!YEN: United States of America
!!!SMA: J.S. Bach Chorale Harmonizations, edited by Ludwig Erk, C.F. Peters
!!!PDT: 1850, 1865
**kern	**kern	**kern	**kern	**root	**harm
*Iorgan	*Iorgan	*Iorgan	*Iorgan	*Iorgan	*
!bass	!tenor	!alto	!soprno	!	!
*clefF4	*clefF4	*clefG2	*clefG2	*	*
*M4/4	*M4/4	*M4/4	*M4/4	*M4/4	*M4/4
*met(C)	*met(C)	*met(C)	*met(C)	*met(C)	*met(C)
*MM60	*MM60	*MM60	*MM60	*MM60	*MM60
*k[]	*k[]	*k[]	*k[]	*k[]	*k[]
*C:	*C:	*C:	*C:	*C:	*C:
=1-	=1-	=1-	=1-	=1-	=1-
4c	4e	4g	4cc	4CC	I
4B	4d	[4g	4g	4GG	Vb
4A	4c	8g]	4a	4FF#	vii/V
.	.	8f#	.	.	.
8G	4d	4g	4b	4GG	V
8F	.	.	.	.	.
=2	=2	=2	=2	=2	=2
4E	8c	4.g	2cc	4CC	Ib
.	8B-	.	.	.	.
4F	4A	.	.	4FF	IV
.	.	[8fn	.	.	.
4C;	4G;	8f]	4cc;	4CC;	I;
.	.	8e;	.	.	.
8c	4c	[4e	4g	4CC	V/IV
8B-	.	.	.	.	.
=3	=3	=3	=3	=3	=3
4A	4c	8e]	4cc	8AA	vi
.	.	8f#	.	8FF#	viiob/V
4G	4d	4g	4b-	4GG	v
4C	4e-	4g	2a	4AA	iio7b/v
4D	8d	4f#	.	4DD	V/V
.	8c	.	.	.	.
=4	=4	=4	=4	=4	=4
2GG;	2B-;	2d;	2g;	2GG;	v;
4G	4B-	8d	4g	4GG	v
.	.	4e-	.	.	.
4F#	4c	.	4a	8FF#	viioD7/v
.	.	[8d	.	8DD	V7b/v
=5	=5	=5	=5	=5	=5
4G	8B-	8d]	4b-	4GG	v
.	8G	8b-	.	.	.
4C	4e-	8a	4cc	4CC	iv/v
.	.	8g	.	.	.
4D	[4d	8f#	4b-	4GG	Vc
.	.	4g	.	.	.
4DD	8.d]	.	4a	4DD	V/v
.	.	8f#	.	.	.
.	16c	.	.	.	.
!!linebreak: 3
=6	=6	=6	=6	=6	=6
2GG;	2B-;	2d;	2g;	2GG;	v;
8C	[4c	8en	4g	4CC	I
8D	.	8f	.	.	.
8E	8c]	4g	4cc	4CC	Ib
8F	8d	.	.	.	.
=7	=7	=7	=7	=7	=7
4G	8e	4g	4cc	4CC	Ic
.	16d	.	.	.	.
.	16c	.	.	.	.
4GG	8d	4g	4b	4GG	V
.	[8f	.	.	.	.
2C;	8f]	2g;	2cc;	2CC;	I;
.	16e	.	.	.	.
.	16d	.	.	.	.
.	4e;	.	.	.	.
=8	=8	=8	=8	=8	=8
8F	4f	4a	4cc	4FF	IV
8G	.	.	.	.	.
8F	4f	8a	4cc	4FF	IV
8E	.	8g	.	.	.
8D	8f	8f	4dd	4DD	ii
8E	8e	8g	.	.	.
8F	8d	[4a	4dd	4DD	iib
8G	8e	.	.	.	.
=9	=9	=9	=9	=9	=9
8A	[4f	4a]	4cc	4FF	IVb
8F	.	.	.	.	.
8G	8f]	8b-	4b-	8DD	ii7
8C	8e	8g	.	8CC	V7/IV
2F;	2c;	2f;	2a;	2FF;	IV;
=10	=10	=10	=10	=10	=10
8c	4c	4e	4g	4CC	V/IV
8B-	.	.	.	.	.
4A	4c	8e	4a	8AA	vi
.	.	8f#	.	8FF#	viiob/v
8G	4d	[4g	4b-	4GG	v
8BB-	.	.	.	.	.
8C	8e-	8g]	4a	8AA	iio7b/v
8D	16d	8f#	.	8DD	V/v
.	16c	.	.	.	.
!!linebreak: 3
=11	=11	=11	=11	=11	=11
2E-;	2B-;	2g;	2g;	2EE-;	-III;
4G	8B-	8d	4b-	4GG	v
.	8d	[8b-	.	.	.
4F	4f	8b-]	4cc	4FF	V/-VII
.	.	8a	.	.	.
=12	=12	=12	=12	=12	=12
8B-	4f	2b-	4dd	4BB-	-VII
8A	.	.	.	.	.
8G	8e-	.	8ee-	8EE-	IVb/-VII
8F	8f	.	8dd	8BB-	Ic/-VII
8E-	8g	4b-	2cc	8CC	ii7b/-VII
8C	8e-	.	.	8CC	ii7/-VII
4F	8c	4a	.	4FF	V/-VII
.	8f	.	.	.	.
=13	=13	=13	=13	=13	=13
2BB-;	2f;	2b-;	2dd;	2BB-;	I/-VII;
4B-y	4f	4.b-	4dd	4BB-	I/-VII
4F	4f	.	4cc	4FF	V/-VII
.	.	8a	.	.	.
=14	=14	=14	=14	=14	=14
8B-	4f	4b-	4dd	4BB-	I/-VII
8A	.	.	.	.	.
8G	8e-	4a	4cc	8AA	iio7d/v
8F#	8d	.	.	8DD	V7b/v
8G	4d	4g	4b-	4GG	v
8A	.	.	.	.	.
8B-	4c	4en	4g	4CC	V7d/IV
8c	.	.	.	.	.
=15	=15	=15	=15	=15	=15
4F	4c	8f	4a	4FF	IV
.	.	8e	.	.	.
4G	4G	8d	4bn	4GG	V7
.	.	8f	.	.	.
2C;	2G;	2e;	2cc;	2CC;	I;
==	==	==	==	==	==
*-	*-	*-	*-	*-	*-
!!!YOR1: Ludwig Erk, Peters Editions of 1850, 1865; rev. in light of Friedrich
!!!YOR2: Smend, Peters Edition of 1932 & Albert Riemenschneider, 1941.
!!!RDT: 1987 September
!!!YER: 1995 March 1
!!chor2scor: -l 3 -s 0.6 -o %b.pmx
